X: 35118
T: Rolling Waves, The
R: jig
M: 6/8
K: Dmajor
|:F2E EDE|F2D DED|F2E EFA|d2e fdB|
F2E EDE|F2D DED|F2E EFA|B2c d3:|
|:ABd e2f|d2c B2A|AB/c/d e2f|dcA B3|
ABd ede|fdB BAF|AFE EFA|B2c d3:|

